X:0763
T:Mrs. McLeod of Elanreoch's Strathspey.
M:C
L:1/8
Q:1/4=120
I: :|| ||
Z:Jack Campin * www.campin.me.uk * 2009
K:D
 A        |d>gTfe  d>BAd|B<F``````d>F BEEc|d>efd  f<ae<f     |d/c/B/A/ dF D/D/D D:|
(d//c//B/)|A<D`A<F ADDd |B/A/B/c/ dF  BEEd|A<DA<F ADDd       |B/A/B/c/ dF D/D/D Dd|
           A<D`A<F ADDd |B/A/B/c/ dF  BEEd|A<DA<F D/E/F/G/ Ag|f>def       d/d/dd|]

